html/app/assets/img/ui/checked.svg

<svg fill="none" height="13" viewBox="0 0 18 13" width="18" xmlns="http://www.w3.org/2000/svg"><path d="m17.1314.468629c.6248.624841.6248 1.637901 0 2.262741l-9.60003 9.60003c-.62484.6248-1.6379.6248-2.26274 0l-4.800001-4.80003c-.624839-.62484-.624839-1.6379 0-2.26274.624841-.62484 1.637901-.62484 2.262741 0l3.66863 3.66863 8.4686-8.468631c.6249-.624839 1.6379-.624839 2.2628 0z" fill="#222"/></svg>

<svg width="18" height="13" viewBox="0 0 18 13" fill="none" xmlns="http://www.w3.org/2000/svg">
<path d="M17.1314 0.468629C17.7562 1.09347 17.7562 2.10653 17.1314 2.73137L7.53137 12.3314C6.90653 12.9562 5.89347 12.9562 5.26863 12.3314L0.468629 7.53137C-0.15621 6.90653 -0.15621 5.89347 0.468629 5.26863C1.09347 4.64379 2.10653 4.64379 2.73137 5.26863L6.4 8.93726L14.8686 0.468629C15.4935 -0.15621 16.5065 -0.15621 17.1314 0.468629Z" fill="#222222"/>
</svg>
